dist/img/companies/auchan.svg

<svg width="153" height="46" viewBox="0 0 153 46" fill="none" xmlns="http://www.w3.org/2000/svg">
<g opacity="1" clip-path="url(#clip0_2_759)">
<path d="M37.6615 12.0513C37.2522 12.4531 37.2522 13.0557 37.6615 13.357C38.0709 13.7587 38.6849 13.7587 38.9919 13.357C39.4013 12.9552 39.4013 12.3526 38.9919 12.0513C38.5826 11.6496 37.9685 11.6496 37.6615 12.0513Z" fill="white"/>
<path d="M47.0769 11.4492H42.9833L41.9599 12.6545C41.7552 12.8553 41.8575 12.9558 42.0622 13.0562L43.3926 13.6588L47.1792 11.9514C47.4863 11.851 47.3839 11.4492 47.0769 11.4492ZM31.8281 31.1348H26.8134C25.4829 31.9383 25.0736 32.1392 23.3338 32.8422C23.2314 32.8422 23.1291 33.0431 23.2314 33.1435L27.7344 45.4973H30.293L26.1993 34.1479C28.8602 34.1479 35.3077 33.4449 38.7873 27.9208C37.6615 29.5278 35.103 31.1348 31.8281 31.1348ZM38.992 13.3575C38.5826 13.7593 37.9685 13.7593 37.6615 13.3575C37.2522 12.9558 37.2522 12.3531 37.6615 12.0518C38.0709 11.6501 38.6849 11.6501 38.992 12.0518C38.1732 11.2483 36.8428 11.2483 36.1264 12.0518C35.41 12.8553 35.3077 14.0606 36.1264 14.8641C36.9451 15.6676 38.2756 15.6676 38.992 14.8641C39.7083 14.0606 39.8107 12.8553 38.992 12.0518C39.299 12.4536 39.299 12.9558 38.992 13.3575ZM29.0649 35.8553L32.5445 45.4973H35.103L31.4187 35.3531C30.8047 35.554 29.9859 35.6545 29.0649 35.8553ZM32.5445 23.8029C32.8515 23.4012 33.0562 22.9994 33.3632 22.4973C33.2609 22.3968 33.1585 22.4973 33.0562 22.5977C27.8368 28.0213 22.8221 28.7243 18.9331 28.7243H12.9973C12.7926 28.7243 12.6903 28.5235 12.7926 28.3226C17.398 22.0955 22.4127 17.1741 26.1993 14.0606L16.2722 22.1959C15.4535 22.7986 14.5324 23.2003 13.3043 23.2003H0.818713C0.51169 23.2003 0.614031 23.5016 0.614031 23.7025C1.43276 26.3138 3.88895 28.7243 7.98259 28.7243L5.0147 31.637C4.91236 31.7374 4.91236 32.0387 5.21938 32.0387H16.3746C24.3572 32.0387 29.3719 28.6239 32.5445 23.8029Z" fill="#00995f"/>
<path d="M143.892 45.4978H153V17.8777H143.892V28.0218H135.295V17.8777H126.187V45.4978H135.295V35.0524H143.892V45.4978ZM36.1264 14.8646C35.3077 14.0611 35.3077 12.8559 36.1264 12.0524C36.9452 11.2489 38.2756 11.2489 38.992 12.0524C39.7084 12.8559 39.8107 14.0611 38.992 14.8646C38.1732 15.6681 36.8428 15.6681 36.1264 14.8646ZM38.685 27.9214C42.1645 22.3974 43.3926 13.6594 43.3926 13.6594L42.0622 13.0568C41.8575 12.9563 41.8575 12.8559 41.9599 12.655L42.9833 11.4498C42.3692 10.2445 40.1177 8.23581 36.8428 8.23581C34.8983 8.23581 33.1585 8.73799 31.6234 9.74236C31.6234 9.74236 29.3719 11.2489 26.1993 13.9607C22.4127 17.1747 17.398 21.9956 12.7926 28.2227C12.6903 28.4236 12.7926 28.6245 12.9973 28.6245H18.9331C22.8221 28.6245 27.8368 27.9214 33.0562 22.4978C33.1585 22.3974 33.2609 22.3974 33.3632 22.3974C33.4655 22.4978 33.4656 22.5983 33.4656 22.6987C32.6468 24.7074 30.6 28.6245 26.8134 31.0349H31.8281C35.2054 31.0349 37.6615 29.5284 38.685 27.9214ZM33.5679 34.5502L37.4569 45.3974H48.5097C46.2582 38.6681 43.802 32.441 41.4482 26.7162C39.606 30.6332 37.8662 32.5415 33.5679 34.5502ZM0 45.4978H11.1552L14.9418 33.9476H4.09365C2.76321 37.3624 1.43278 41.179 0 45.4978ZM15.0441 20.69L20.6729 16.1703C21.901 12.9563 23.1291 9.74236 24.3572 7.03057C24.9712 8.43668 25.5853 9.94323 26.1993 11.4498C29.2696 8.93886 31.214 7.43231 33.7726 6.72926C32.2375 3.41485 31.1117 1.00437 30.6 0H18.1144C17.091 2.20961 13.0997 10.345 8.39197 21.2926H12.895C13.8161 21.2926 14.5324 21.1921 15.0441 20.69ZM84.0221 42.3843L84.6361 45.3974H92.0047V17.8777H82.8963V37.0611C82.0776 37.9651 80.5425 38.9694 79.1097 38.9694C76.5512 38.9694 75.2207 37.5633 75.2207 34.952V17.8777H66.1124V37.0611C65.2936 37.9651 63.5538 38.9694 62.0187 38.9694C59.6649 38.9694 58.3344 37.5633 58.3344 34.952V17.8777H49.2261V36.1572C49.2261 42.786 52.194 46.1004 58.3344 46.1004C62.7351 46.1004 65.396 44.4934 67.4428 42.3843C68.8756 44.8952 71.4341 46.1004 75.2207 46.1004C79.6214 46 82.0776 44.4934 84.0221 42.3843ZM112.985 36.9607C112.166 37.8646 110.835 38.869 108.584 38.869C106.128 38.869 104.797 36.6594 104.797 32.3406C104.797 27.0175 106.23 24.4061 109.198 24.4061C110.938 24.4061 111.757 24.5065 112.985 24.8079V36.9607ZM105.411 46H105.718C109.812 46 112.575 44.5939 114.11 42.3843L114.622 45.3974H122.093V18.9825C119.125 18.0786 115.645 17.2751 109.3 17.2751C100.192 17.2751 95.2796 22.6987 95.2796 32.7424C95.2796 41.9825 98.7592 46 105.411 46Z" fill="#dd0007"/>
</g>
<defs>
<clipPath id="clip0_2_759">
<rect width="153" height="46" fill="white"/>
</clipPath>
</defs>
</svg>

<svg width="153" height="46" fill="none" xmlns="http://www.w3.org/2000/svg"><g clip-path="url(#clip0_2_759)"><path d="M37.661 12.051c-.409.402-.409 1.005 0 1.306.41.402 1.024.402 1.33 0 .41-.402.41-1.004 0-1.306-.408-.401-1.023-.401-1.33 0z" fill="#fff"/><path d="M47.077 11.45h-4.094l-1.023 1.205c-.205.2-.102.3.102.401l1.33.603 3.787-1.708c.307-.1.205-.502-.102-.502zM31.828 31.134h-5.015c-1.33.803-1.74 1.004-3.48 1.707-.102 0-.204.201-.102.302l4.503 12.353h2.559l-4.094-11.35c2.661 0 9.109-.702 12.588-6.226-1.126 1.607-3.684 3.214-6.959 3.214zm7.164-17.777c-.41.401-1.023.401-1.33 0-.41-.402-.41-1.005 0-1.306.409-.402 1.023-.402 1.33 0-.819-.804-2.15-.804-2.866 0-.716.803-.818 2.009 0 2.812.82.804 2.15.804 2.866 0 .716-.803.819-2.009 0-2.812a1.04 1.04 0 010 1.306zm-9.927 22.497l3.48 9.642h2.558l-3.684-10.144c-.614.201-1.433.301-2.354.502zm3.48-12.052c.306-.402.511-.804.818-1.306-.102-.1-.205 0-.307.1-5.22 5.424-10.234 6.127-14.123 6.127h-5.936c-.204 0-.307-.2-.204-.401 4.605-6.227 9.62-11.149 13.406-14.262l-9.927 8.135c-.818.603-1.74 1.004-2.968 1.004H.82c-.307 0-.205.302-.205.503.819 2.61 3.275 5.021 7.369 5.021l-2.968 2.913c-.103.1-.103.402.204.402h11.156c7.982 0 12.997-3.415 16.17-8.236z" fill="#00995f"/><path d="M143.892 45.498H153v-27.62h-9.108v10.144h-8.597V17.878h-9.108v27.62h9.108V35.052h8.597v10.446zM36.126 14.865c-.818-.804-.818-2.01 0-2.813.82-.803 2.15-.803 2.866 0 .716.804.819 2.01 0 2.813-.819.803-2.15.803-2.866 0zm2.559 13.056c3.48-5.524 4.708-14.262 4.708-14.262l-1.33-.602c-.206-.1-.206-.201-.103-.402l1.023-1.205c-.614-1.205-2.865-3.214-6.14-3.214-1.945 0-3.685.502-5.22 1.506 0 0-2.251 1.507-5.424 4.219-3.786 3.214-8.801 8.035-13.406 14.262-.103.2 0 .402.204.402h5.936c3.89 0 8.904-.704 14.123-6.127.102-.1.205-.1.307-.1.102.1.103.2.103.3-.82 2.01-2.866 5.927-6.653 8.337h5.015c3.377 0 5.833-1.507 6.857-3.114zm-5.117 6.63l3.889 10.846H48.51c-2.252-6.729-4.708-12.956-7.062-18.68-1.842 3.916-3.582 5.825-7.88 7.833zM0 45.497h11.155l3.787-11.55H4.094C2.764 37.362 1.433 41.179 0 45.498zM15.044 20.69l5.629-4.52c1.228-3.214 2.456-6.428 3.684-9.14a197.652 197.652 0 011.842 4.42c3.07-2.511 5.015-4.018 7.574-4.72C32.237 3.414 31.112 1.003 30.6 0H18.114C17.091 2.21 13.1 10.345 8.392 21.293h4.503c.921 0 1.637-.1 2.15-.603zm68.978 21.694l.614 3.013h7.369v-27.52h-9.109v19.184c-.818.904-2.353 1.908-3.786 1.908-2.559 0-3.89-1.406-3.89-4.017V17.878h-9.108V37.06c-.818.904-2.558 1.908-4.093 1.908-2.354 0-3.685-1.406-3.685-4.017V17.878h-9.108v18.28c0 6.628 2.968 9.942 9.108 9.942 4.401 0 7.062-1.607 9.109-3.716 1.433 2.511 3.991 3.716 7.778 3.716 4.4-.1 6.857-1.607 8.801-3.716zm28.963-5.423c-.819.904-2.15 1.908-4.401 1.908-2.456 0-3.787-2.21-3.787-6.528 0-5.324 1.433-7.935 4.401-7.935 1.74 0 2.559.1 3.787.402V36.96zM105.411 46h.307c4.094 0 6.857-1.406 8.392-3.616l.512 3.013h7.471V18.983c-2.968-.904-6.448-1.708-12.793-1.708-9.108 0-14.02 5.424-14.02 15.467 0 9.24 3.48 13.258 10.13 13.258z" fill="#dd0007"/></g><defs><clipPath id="clip0_2_759"><path fill="#fff" d="M0 0h153v46H0z"/></clipPath></defs></svg>
